X: 980
T: Bonaparte's retreat
C: anon.
O: Ireland
B: Francis O'Neill: "The Dance Music of Ireland" (1907) no. 980
R: Long dance, set dance
Z: Transcribed by Frank Nordberg - http://www.musicaviva.com
F: http://www.musicaviva.com/abc/tunes/ireland/oneill-1001/oneill-1001-098
0.abc
m: Tn3 = n(3n/o/n/ m/n/
M: C
L: 1/8
K: D
(DC)|A,DD(E FE)DC|DEGA Tc3d|edc(B cA)BG|AGF(E FD)EC|A,DD(E FE)DC|DEGA c(B
cd)|e(dcA) GECD|E2D2D2:|
|:(AB)|cBc(B cd)cA|d(cde) dfed|cBc(d cA)BG|AGF(E FD)EC|cBc(B cd)cA|d(cde)
 defg|afg(e fd)ec|Adce d2(de)|fef(g fe)df|edd(f ed)cA|
dfe(d cA)BG|AGF(E FD)EC|A,DD(E FE)DC|DEGA Tc3d|edc(B cA)BG|AGF(E FD)EC|A,
DD(E FE)DC|DEGA c(Bcd)|e(dcA) GECD|E2D2D2:|
W:
W:
W: From Musica Viva - http://www.musicaviva.com
W: the Internet center for free sheet music downloads.


